papirus/32x32/apps/wingpanel.svg

<svg height="32" viewBox="0 0 32 32.000001" width="32" xmlns="http://www.w3.org/2000/svg"><path d="m3.4 4.9996c-.7756 0-1.4.6194-1.4 1.3889v.3892 19.444 1.3889c0 .7694.6244 1.3889 1.4 1.3889h25.2c.7756 0 1.4-.6195 1.4-1.3889v-1.3889-19.444-.3892c0-.7695-.6244-1.3889-1.4-1.3889z" fill="#4ab3e4"/><path d="m3.4 4c-.7756 0-1.4.6194-1.4 1.3889v1.6111h28v-1.6111c0-.7695-.6244-1.3889-1.4-1.3889z" fill="#4d4d4d"/><path d="m3.4004 4c-.7756 0-1.4004.6192-1.4004 1.3887v1c0-.7695.6248-1.3887 1.4004-1.3887h25.2c.775 0 1.4.6192 1.4 1.3887v-1c0-.7695-.625-1.3887-1.4-1.3887z" fill="#fff" opacity=".1"/><path d="m2 26.611v1c0 .77.6248 1.389 1.4004 1.389h25.2c.775 0 1.4-.619 1.4-1.389v-1c0 .77-.625 1.389-1.4 1.389h-25.2c-.7752 0-1.4-.619-1.4-1.389z" opacity=".3"/></svg>

<?xml version="1.0" encoding="UTF-8" standalone="no"?>
<!-- Created with Inkscape (http://www.inkscape.org/) -->

<svg
   xmlns:dc="http://purl.org/dc/elements/1.1/"
   xmlns:cc="http://creativecommons.org/ns#"
   xmlns:rdf="http://www.w3.org/1999/02/22-rdf-syntax-ns#"
   xmlns:svg="http://www.w3.org/2000/svg"
   xmlns="http://www.w3.org/2000/svg"
   xmlns:sodipodi="http://sodipodi.sourceforge.net/DTD/sodipodi-0.dtd"
   xmlns:inkscape="http://www.inkscape.org/namespaces/inkscape"
   id="svg4222"
   height="32"
   width="32"
   version="1.1"
   viewBox="0 0 32 32.000001"
   inkscape:version="0.91 r13725"
   sodipodi:docname="wingpanel.svg">
  <defs
     id="defs11" />
  <sodipodi:namedview
     pagecolor="#ffffff"
     bordercolor="#666666"
     borderopacity="1"
     objecttolerance="10"
     gridtolerance="10"
     guidetolerance="10"
     inkscape:pageopacity="0"
     inkscape:pageshadow="2"
     inkscape:window-width="1600"
     inkscape:window-height="849"
     id="namedview9"
     showgrid="false"
     inkscape:zoom="7.375"
     inkscape:cx="-11.661017"
     inkscape:cy="16"
     inkscape:window-x="0"
     inkscape:window-y="0"
     inkscape:window-maximized="1"
     inkscape:current-layer="svg4222" />
  <metadata
     id="metadata4227">
    <rdf:RDF>
      <cc:Work
         rdf:about="">
        <dc:format>image/svg+xml</dc:format>
        <dc:type
           rdf:resource="http://purl.org/dc/dcmitype/StillImage" />
        <dc:title />
      </cc:Work>
    </rdf:RDF>
  </metadata>
  <path
     sodipodi:nodetypes="ssccssssccsss"
     style="fill:#4ab3e4"
     inkscape:connector-curvature="0"
     d="M 3.4,4.9996 C 2.6244,4.9996 2,5.619 2,6.3885 l 0,0.3892 0,19.444 0,1.3889 c 0,0.7694 0.6244,1.3889 1.4,1.3889 l 25.2,0 c 0.7756,0 1.4,-0.6195 1.4,-1.3889 l 0,-1.3889 0,-19.444 0,-0.3892 C 30,5.619 29.3756,4.9996 28.6,4.9996 Z"
     id="rect4203" />
  <path
     style="fill:#4d4d4d"
     inkscape:connector-curvature="0"
     d="M 3.4,4 C 2.6244,4 2,4.6194 2,5.3889 L 2,7 30,7 30,5.3889 C 30,4.6194 29.3756,4 28.6,4 Z"
     id="rect3328" />
  <path
     style="opacity:0.1;fill:#ffffff"
     inkscape:connector-curvature="0"
     d="M 3.4004,4 C 2.6248,4 2,4.6192 2,5.3887 l 0,1 C 2,5.6192 2.6248,5 3.4004,5 l 25.2,0 c 0.775,0 1.4,0.6192 1.4,1.3887 l 0,-1 C 30.0004,4.6192 29.3754,4 28.6004,4 l -25.2,0 z"
     id="path4144" />
  <path
     style="opacity:0.3"
     inkscape:connector-curvature="0"
     d="m 2,26.611 0,1 C 2,28.381 2.6248,29 3.4004,29 l 25.2,0 c 0.775,0 1.4,-0.619 1.4,-1.389 l 0,-1 c 0,0.77 -0.625,1.389 -1.4,1.389 l -25.2,0 c -0.7752,0 -1.4,-0.619 -1.4,-1.389 z"
     id="path4136" />
</svg>
